!!!COM: Palestrina, Giovanni Perluigi da
!!!OPR: Missa In semidupl. maj. (I)
!!!OMD: Sanctus
!!!OTL: Hosanna
**kern	**kern	**kern	**kern	**kern
*Ibass	*Itenor	*Itenor	*Icalto	*Icant
!Bassus	!Tenor 2	!Tenor 1	!Altus	!Cantus
*clefF4	*clefGv2	*clefGv2	*clefG2	*clefG2
*k[b-]	*k[b-]	*k[b-]	*k[b-]	*k[b-]
*F:ion	*F:ion	*F:ion	*F:ion	*F:ion
*M4/2	*M4/2	*M4/2	*M4/2	*M4/2
=69	=69	=69	=69	=69
0r	0r	0r	1B-	1r
.	.	.	2G	2r
.	.	.	2F	2f
=70	=70	=70	=70	=70
0r	0r	2r	2B-	2d
.	.	2F	2c	2c
.	.	2D	2d	2f
.	.	2C	2e	2g
=71	=71	=71	=71	=71
0r	0r	2F	2f	2a
.	.	2G	4e	2b-
.	.	.	4d	.
.	.	1A	1c	4cc
.	.	.	.	4b-
.	.	.	.	4a
.	.	.	.	4g
=72	=72	=72	=72	=72
1BB-	0r	1.B-	1d	4f
.	.	.	.	4e
.	.	.	.	4d
.	.	.	.	4c
2GG	.	.	2B-	4d
.	.	.	.	4e
2FF	.	2A	2c	[2f
=73	=73	=73	=73	=73
2BB-	0r	1G	2d	2f]
2C	.	.	4c	2e
.	.	.	4B-	.
2.D	.	1F	[1A	2f
.	.	.	.	2f
4C	.	.	.	.
=74	=74	=74	=74	=74
4D	1F	2r	1A]	2d
4E	.	.	.	.
1F	.	2A	.	2c
.	2D	2F	2r	2f
2E	2C	2c	2c	2g
=75	=75	=75	=75	=75
2F	2F	2.c	2A	2a
2C	2G	.	2G	2.cc
.	.	4B-	.	.
4FF	2A	4A	2.c	.
4GG	.	4G	.	4b-
4AA	[2c	2F	.	2a
4BB-	.	.	4d	.
=76	=76	=76	=76	=76
2C	4c]	2E	2e	2g
.	4B-	.	.	.
2FF	2A	2C	2f	2f
2C	2G	2C	2e	2g
2FF	2F	[2c	[2f	2a
=77	=77	=77	=77	=77
0C	0G	2c]	2f]	0g
.	.	2c	4e	.
.	.	.	4d	.
.	.	1c	1e	.
=78	=78	=78	=78	=78
[0FF	[0F	[0c	[0f	[0a
=79	=79	=79	=79	=79
0FF]	0F]	0c]	0f]	0a]
==	==	==	==	==
*-	*-	*-	*-	*-
!!!CDT: 1525/^1526/-1594/2/2
!!!OCY: Italia
!!!AGN: Mass (Paraphrase)
!!!AST: renaissance, vocal
!!!ASW: Gregorian Mass
!!!PWK: Masses, Book Mantuan II
!!!RNB: Cadence finals: C
!!!YOR: Le Opere Complete, v. 19, p. 129
!!!YOO: Rome, Italy: Fratelli Scalera
!!!END: 1992//
!!!EED: John Miller
!!!YEC: Copyright 2000, John Miller
!!!YEN: United States of America
!!!YEM: Rights to all derivative electronic formats reserved.
!!!YEM: Refer to licensing agreement for further details.
!!!YEM: This file must be accompanied by the licensing agreement.
!!!YEM: A copy of the licensing agreement may be found at http://www.music-cog.ohio-state.edu/HumdrumDatabases/Palestrina/license.txt
!!!EMD: converted to Humdrum by Bret Aarden
